X:1
T:Partita II Allemande
T:Partita II Allemande
T:J. S. Bach
C:J. S. Bach
%%score ( 1 2 3 )
L:1/8
Q:1/4=80
M:4/4
K:F
V:1 treble nm="Violin" snm="Vln."
V:2 treble 
V:3 treble 
V:1
 D/ | D>E F/G/A/B/ ^C/(B/A/G/) e>G | (F/^C/)(D/A,/) (B,/D/)(F/G/) C/A,/C/E/ (3(A/G/F/)(3(G/F/E/) | %3
 F/D/F/A/ (3(B/A/G/)(3(A/G/F/) E/G/B/d/ (3(c/B/A/)(3(B/A/G/) | %4
 A/F/A/c/ (f/g/a/)c/ d/A/B/d/ (g/a/b/)d/ | e/B/c/G/ (A/B/c/)E/ F/A,/B,/G/ C/E/G/B/ | %6
 (A/G/F/)A/ d/F/E/D/ ^C/e/f/g/ A/g/f/e/ | (f/e/d/)E/ D/=C/=B,/A,/ ^G,/=B/c/d/ E/(d/c/=B/) | %8
 (c/=B/A/)B/ (c/f/4e/4d/)c/ (=B/A/G/)A/ (=B/e/4d/4c/)B/ | %9
 (A/G/F/G/4A/4) D/c/=B/A/ (^G/^F/E/^F/ ^G/A/=B/c/) | (d/e/f/e/ d/c/=B/A/) (^g/a/=b/a/ ^g/^f/e/d/) | %11
 (c/d/4e/4=f/)a/ (=B/c/4d/4e/)g/ (A/=B/4c/4d/)f/ (G/A/4=B/4c/)e/ | %12
 (F/G/4A/4=B/)d/ (E/^F/4^G/4A/)c/ (D/^C/D/=F/) (_B/c/d/B/) | %13
 (F/E/F/)B/ d/e/f/d/ (B/A/B/)d/ (f/g/4a/4b/)a/ | %14
 ^g/(=b/4a/4^g/)(=f/4e/4 d/)(f/4e/4d/)(=B/4A/4 ^G/)(=B/e/)^g/ =b/e/(d'/c'/4b/4) | %15
 (c'/=b/4a/4^g/)a/ (3(c/d/e/)(3(d/c/=B/) A>=B ^c/d/e/=G/ | (F/D/F/A/ d/f/^g/)D/ [A,E^ca]3 z/ :: %17
 e/ | e>f e/d/^c/=B/ (A/G/4A/4_B/)A/ G/F/E/F/ | (G/F/)(E/D/) e/A/B/D/ C/(G/B/_e/) A/c/f/_e/ | %20
 d/(A/B/d/) _E/G/A/=B/ c/d/_e/c/ (3(a/g/^f/)(3(g/^f/=e/) | %21
 (^f/c/4d/4_e/)d/ (c/B/4A/4d/)c/ (B/c/4d/4_e/)g/ (A/B/4c/4d/)=f/ | %22
 (G/A/4B/4c/)_e/ (F/G/4A/4B/)d/ D/(g/4f/4e/)(c/4B/4 A/)(c/4B/4A/)(^F/4=E/4 | %23
 D/)(^F/A/c/) (3(_e/d/c/)(3(^f/e/d/) (b/a/4g/4f/)g/ (3(B/c/d/)(3(c/B/A/) | %24
 G>A B/c/d/=F/ =E/C/E/G/ (B/e/4f/4g/)B/ | A/F/A/c/ f/A/G/F/ C/G/c/d/ e/B/A/G/ | %26
 F/D/F/A/ d/F/E/D/ A,/E/A/B/ c/G/F/_E/ | D/B,/D/F/ B/A/G/F/ (e/f/4g/4f/)e/ (d/c/B/)g/ | %28
 (A/4G/4F/4E/4F/)B,/ C/E/G/A/ (B/A/)(G/F/) a/e/f/d/ | %29
 (=B/d/f/)a/ g/e/^c/g/ (D/A/^c/)g/ f/^c/d/_B/ | (G/B/d/)f/ _e/c/A/=e/ (B,/F/A/)_e/ d/A/B/G/ | %31
 (=E/G/B/)d/ c/A/^F/c/ B/A/G/=F/ _E/D/E/G/ | %32
 (B/A/B/)_e/ (g/^f/g/)b/ (^c/A/4=B/4^c/)=e/ G/(_B/4A/4G/)F/4E/4 | %33
 F/(A/4G/4F/)(E/4D/4 A,/)E/d/^c/ [Dd]3 |:[M:3/4]"^Courante." A/ | [DFA]2 (3(^CBA) (3(GFE) | %36
 [DF]2 (3(A,GF) (3(ED^C) | D>B, G,>F E>D | ^C>A, C>E A>G | (3(FDE (3FGA (3Bcd) | c>A F>C A,>_E | %41
 (3(DB,C (3D=EF (3GAB) | (3(AFG (3ABc (3d_ec) | (3(dBc (3d=ef (3gab) | E>c g>b a>g | %45
 (3(agf) (3(efg) (3(cde) | (3(fcB) (3(ABc) (3(FGA) | D>^F A>c B>A | (3(Bdc (3BAG (3=FED) | %49
 ^C>E A>g f>e | (3(fAG (3FED (3=C=B,A,) | (3(^G,de) (3(fed) (3(cd=B) | (3(A,cd) (3(edc) (3(=BcA) | %53
 (3(^GDE) (3(FED) (3(CD=B,) | (3(CEA) (3(cea) (3(b^ga) | (3(f^cd) (3(_B^GA) (3(F^CD) | %56
 (3^G,=ba (3(^g=fe (3dc=B) | (3(ced (3c=BA) (3(EA^G) | A,4- A,3/2 :: e/ | %60
 [A^ce]2 (3(^Gfe) (3(d^c=B) | (3(^cAE) (3A,(_BA (3=GFE) | F>d E>g f>e | f>d A>F D>F | %64
 (3(A,_ed) (3(cBA) (3(gf_e) | d>B F>D B,>d | (3F(c'b (3ag^f (3_edc) | (3(BGA (3Bcd) (3(_ede) | %68
 (3(AFG (3ABc) (3(dcd) | E>d g>B c>_e | (3(^FAG (3^F_ED (3CB,A,) | (3(B,DG) (3(Bdg) (3(dg^f) | %72
 (3(gdc (3BAG (3=FED) | E>G B>d c>B | (3(AFG (3A=B^c (3def) | (3(gag (3fed (3^c=BA) | %76
 (3(fgf (3ed=c (3=BAG) | (3(efe (3dc_B (3Ac_e) | (3(d_ed (3cBA) (3(^Gd=b) | A2 (3A,(=c=B (3^cde) | %80
 (3(G^FG) (3(^CGA (3_BAG) | (3(=FGA) (3D(de (3fga) | (3(c=Bc) (3(^Fcd (3_edc) | %83
 (3(_B^FG) (3(_e^cd) (3(b^fg) | ^c'2- (3c'(d'c') (3(d'=c'_b) | (3(agf) (3(efd) (3(Ad^c) | %86
 d>B ^G2- (3G(A=B) | (3(^CE=G) _B2- (3B(AG) | (3(FA^c) (3(dfa) (3(A,D^C) | D4- D3/2 :: %90
[M:3/4]"^Sarabande." [DAdf]2 [GB]3 B | [^CGBe]2 [GA]3 A | D2 =C2 B,2 | %93
 (d/c/)(B/A/) (G2 T^F/>)(D/=E/4^F/4G/4A/4) | [G,DB](d/c/ B/A/G/=F/ E/D/^C/D/) | (G,/E/^c/b/) a3 G | %96
 F2 E2 D2 | A6 :| A2 G4 |: d/=c/=B/c/ =B-B/(d/ e/g/f/a/4g/4) | E2 D2 G2 | %101
 [CGce]d/c/ b2- b/(_a/^f/g/) | c2 B z G z | c(d/_e/) ^Fd (c/B/A/G/) | %104
 (c/_e/)(b/a/) (B/d/)(a/g/) (A/c/g/^f/) | g2 G,2- G,/(G/4A/4B/4c/4d/4=F/4) | %106
 [Ecb]>a (g/f/e/d/4c/4) TB>A | F z ^F z D>c | G z ^G z E/>(f/e/f/4d/4) | %109
 (d/^c/e/)A/ (A/=G/_B/)D/ (D/^C/E/)A,/ | [B,G^ce]2 [A,Adf]4 | %111
 G,/ (B/_e/g/ e/B/G/_E/) b/(c/4d/4=e/)G/ | (F/A/d/)(a/ g/)(^c/d/f/) (A/d/e/^c/) |1 %113
 d>(=c B/A/G/F/ E/D/^C/D/4E/4) | [A,Ac]2 G4 :|2 d/(D/F/A/ G/F/E/D/ =C/B,/C/A,/) || %116
 B,/(d/c/A/) (B/^F/G/B/) (d/=f/e/^c/) | d/(=B,/D/F/ ^G/=B/d/)(e/ f/)(^c/d/)(^G/ | %118
 A/)(_B/4A/4=G/F/) (E/D/4^C/4D/)^G,/ A,/(E/=G/^c/) | d2 D4 |]:[M:12/8] A | %121
 (DFA) (def) e(g/f/e/d/) (^cAE) | (^CEA) (efg) f(a/g/f/e/) (dAF) | %123
 Df/e/d/f/ b/a/g/f/e/d/ c/d/e/d/c/e/ a/g/f/e/d/c/ | %124
 B/c/d/c/B/d/ g/f/e/d/^c/=B/ A/=G/^c/B/A/c/ e/d/^c/=B/A/G/ | %125
 (F/A/G/F/E/D/) A,d^c D>EF/G/ A/B/=c/d/e/f/ | g/e/c/G/E/G/ c/G/E/C/E/G/ A/G/F/G/A/B/ c/d/e/f/g/a/ | %127
 (b/a/b/)d'/e/g/ (a/g/a/)c'/d/e/ (g/f/g/)b/c/e/ (f/e/f/)a/g/f/ | %128
 (e/d/e/)f/e/d/ (c/B/c/)d/c/B/ (A/B/c/)f/c/A/ (F/G/A/)c/A/F/ | %129
 (D/_E/F/)B/F/D/ (B,/C/D/)F/D/B,/ G,/B,/D/G/B/d/ g/b/g/d/B/G/ | %130
 (=E/G/c/)e/g/b/ (c/B/c/)d/c/B/ (A/B/c/)f/c/A/ (F/G/A/)c/A/F/ | %131
 (D/_E/F/)B/F/D/ (B,/C/D/)F/D/B,/ G,/B,/D/G/B/d/ g/b/g/d/B/G/ | %132
 (=E/G/c/)e/g/b/ (c/B/c/)b/c/b/ (F/A/c/)e/f/a/ (c/B/c/)a/c/a/ | %133
!p! (E/G/c/)e/g/b/ (c/B/c/)b/c/b/ (F/A/c/)e/f/a/ (c/B/c/)a/c/a/ | %134
!f! (B/d/f/)a/b/d'/ (e/d/e/)d'/e/d'/ (A/c/e/)g/a/c'/ (d/c/d/)c'/d/c'/ | %135
 (G/B/d/)f/g/b/ (c/B/c/)b/c/b/ (F/A/c/)e/f/a/ (c/B/c/)a/f/d/ | %136
 B/A/B/c/d/B/ G/F/G/A/B/G/ E/D/E/F/G/E/ C/E/G/c/e- | %137
 e/(B/A/G/F/E/ D/^C/=B,/A,/)G/E/ F/D/F/A/d/^c/ d/A/d/f/=b/a/ | %138
 =b/(f/e/d/=c/=B/ A/^G/^F/E/)d/=B/ c/A/c/e/a/^g/ (a/=b/c'/)^g/a/c'/ | %139
 (f/=g/a/)e/f/a/ (d/e/f/)^c/d/f/ ^G>A=B/=c/ (d/e/f/)d/=b/d/ | %140
 (c/d/e/)c/a/c/ (=B/c/d/)B/^g/_B/ (c/d/e/)c/a/c/ (d/e/f/)d/^b/d/ | %141
 (c/d/e/)=B/c/A/ (=B/c/d/)A/B/^G/ A/A,/^C/E/=G- G/E/^C/A,/C/E/ | %142
 F/D/F/A/d/^c/ d/A/d/f/a/^g/ a/e/^c/A/E/^C/ A,2 :: e | (A^ce) (GAB) ^CE/D/^C/=B,/ (A,^CE) | %145
 G/A/B/A/G/B/ e/d/^c/=B/A/G/ F/E/F/G/A/F/ D>d=c/_B/ | %146
 A/(c/B/A/G/^F/) _e/d/c/B/A/G/ ^F/(A/G/^F/=E/D/) a/g/^f/=e/d/c/ | %147
 B/(d/c/B/A/G/) c'/b/a/g/^f/e/ d/e/^f/a/g/=f/ _e/d/c/B/A/G/ | %148
 (^F/A/d/)^f/a/c'/ (d/c/d/)c'/d/c'/ (G/B/d/)^f/g/b/ (d/c/d/)b/d/b/ | %149
!p! (^F/A/d/)^f/a/c'/ (d/c/d/)c'/d/c'/ (G/B/d/)^f/g/b/ (d/c/d/)b/d/b/ | %150
!f! (C/_E/G/)B/c/_e/ (F/_E/F/)_e/F/e/ (B,/D/F/)A/B/d/ (_E/D/E/)d/E/d/ | %151
 (A,/C/_E/)G/A/c/ (D/C/D/)c/D/c/ (G,/B,/D/)^F/G/B/ (D/^F/G/)B/d/g/ | %152
 _e/d/e/f/g/e/ c/B/c/d/_e/c/ A/G/A/B/c/A/ ^F/A/d/^f/a/c'/ | %153
 (b/a/)(c'/b/a/g/) d/g/^f/g/a/f/ g/(_e/d/c/B/A/) B/G/A/B/c/d/ | %154
 (=e/f/g/)e/B/e/ (C/E/G/)B/A/G/ (A/B/c/)A/F/A/ (B,/D/F/)A/F/D/ | %155
 (^c/d/e/)c/G/c/ (A,/^C/E/)G/F/E/ F/D/F/A/d/^c/ d/A/d/f/a/=c/ | %156
 G/(a/g/f/e/d/) c/d/e/f/g/B/ A/(g/f/e/d/c/) B/c/d/e/f/A/ | %157
 G/(f/e/d/^c/=B/) A/=B/^c/d/e/G/ F/A/d/A/F/A/ D/F/A/F/D/F/ | %158
 (B,/F/d/)f/e/^c/ (A,/F/d/)f/e/^c/ (G,/F/d/)f/e/d/ (b/a/g/f/e/d/) | %159
 ^c/e/f/g/a/e/ (d/^c/=B/A/)(e/G/) (F/G/A/)F/d/F/ (E/F/G/)E/=c/E/ | %160
 (D/E/F/)D/_B/D/ (C/D/E/)C/A/C/ (B,/C/D/)B,/G/D/ (G/A/B/)G/_e/G/ | %161
 (A,/=B,/^C/)A,/G/A,/ (G/A/_B/)G/^c/G/ (F/G/A/)F/d/A/ (d/e/f/)d/=b/d/ | %162
 ^G/A/=B/^c/d/e/ (f/e/d/^c/d/)^G/ A/^c/d/e/f/=g/ a/_b/(e/f/g/)^c/ | %163
 d/D/F/A/d/e/ f/d/f/a/d'/^c'/ d'/a/f/d/A/F/ D2 :|[M:3/4]"^Chaconne." A3 A | e2 e3 e | f2 d3 c | %167
 [GB]2 [FA]2 (G/F/E/F/) | (G/E/)(F/D/) A3 A | e2 e3 e | f2 d3 d | [db]2 [^ca]3/2g/4f/4 g>e | %172
 [Ddf]>E F3/2G/4A/4 B>A | G>F G>B A>G | F>E F>A G>F | E>F E>G F>E | D>E F3/2G/4A/4 B>A | %177
 G>F G>B A>G | F>E F>A G>E | d>e (d2 ^c>)A | d>e f3/2g/4a/4 b>f | e>b a>g a>^f | %182
 g>=f e3/2d/4^c/4 d>e | f>g e>f g>e | f3/2d/4e/4 f3/2g/4a/4 b>f | e>b a>g a>^f | %186
 g>=f e3/2d/4^c/4 d>e | f>g d3/2^c/4=B/4 c>G | Ffed^cd | G(A/B/) ^CBAG | F(G/A/) B,DG(d/^c/) | %191
 dF E/F/G/B/ A/G/F/E/ | (F/A/d/f/) (f/e/g/f/ e/d/^c/d/) | G/B/^F/G/ (^C/E/G/)B/ A/G/e/G/ | %194
 =F/^C/D/A,/ (B,/D/G/)A/ B/_e/^c/d/ | (^G/_B/d/)f/ =e/=g/^c/d/ (A,/E/d/)d/ | dfbagD | ^Cea=g^f=C | %198
 =B,dg=fe_B, | A,/f/e/d/ ^cA eg | F/D/F/A/ (d/f/b/)a/ ^g/=b/g/e/ | %201
 (^c/e/a/)=g/ ^f/a/f/=c/ A/^F/D/C/ | (=B,/D/G/)^F/ G/(_e/d/^c/) (_b/a/^g/)a/ | %203
 f/e/d/=c/ (_B/A/^G/)A/ ^C/=G/F/E/ | F/D/E/F/ G/A/=B/^c/ d/F/E/D/ | %205
 (A,/E/d/)^c/ (D/^F/A/)=c/ c/_B/c/A/ | B/G/=F/_E/ D/C/B,/A,/ (G,/G/_e/)d/ | %207
 ^c/=e/A/G/ F/d/E/D/ (A,/E/d/)^c/ | (g/e/f/^c/) (d/=c/B/A/ G/F/E/D/) | %209
 ^C/B/A/G/ ^F/D/A/D/ =C/B,/C/A,/ | (B,/G,/A,/B,/ C/D/E/^F/ G/A/B/A/) | %211
 ^G/A/E/=F/ =G/(^C/D/)(^G,/ A,/)F/E/C/ | D/(d/A/G/ F/E/D/C/ B,/)d/G/F/ | %213
 E/(c/G/F/ E/D/C/B,/ A,/)c/F/_E/ | D/(G/F/_E/ D/C/B,/A,/ G,/)B/=E/D/ | %215
 ^C/A,/C/E/ A/E/A/^c/ e/G/A/E/ | F/D/F/A/ d/A/d/f/ B/(g/a/d'/) | e/C/E/G/ c/G/c/e/ A/(f/g/a/) | %218
 d/B,/D/F/ B/F/B/d/ G/(e/f/g/) | ^c/A/c/e/ a/e/a/^c'/ e'/g/f/e/ | dA Dd (B/A/B/)G/ | %221
 cG Cc (A/G/A/)F/ | BF B,d (G/F/G/)E/ | (F/E/)(F/D/) (d/^c/)(d/=B/) (a/g/)(a/e/) | %224
 (d/^c/d/)A/ (F/E/F/)D/ B,/G/d/b/ | (=c/=B/c/)G/ (E/D/E/)C/ A,/F/c/a/ | %226
 (F/_E/)(F/D/) (D/C/)(D/B,/) G,/=E/=B/g/ | A,/E/^c/g/ A,/F/d/f/ A,/G/^c/e/ | %228
 d/(A/4G/4F/E/) D/C/B,/G,/ B,/(d/4c/4B/4A/4G/4F/4) | %229
 E/(G/4F/4E/D/) C/B,/A,/G,/ A,/(c/4B/4A/4G/4F/4_E/4) | %230
 D/(F/4_E/4D/C/) B,/(D/4C/4B,/A,/) G,/(B/4A/4G/4F/4=E/4D/4) | %231
 (^C/4=B,/4A,/4=B,/4^C/4D/4E/4F/4) (G/4A/4_B/4A/4G/4F/4E/4D/4) ^C/(e/4d/4^c/4=B/4A/4G/4) | %232
 F/(D/4E/4F/)A/ F/D/F/A/ (_B/4c/4d/4e/4f/4g/4a/4b/4 | %233
 e/)(C/4D/4E/)G/ E/C/E/G/ (A/4B/4c/4d/4e/4f/4g/4a/4 | %234
 d/)(B,/4C/4D/)F/ D/B,/D/(F/ G/4A/4B/4c/4d/4e/4f/4g/4) | %235
 ^c/4(b/4a/4g/4f/4e/4_d/4c/4) (B/4A/4G/4F/4E/4D/4^C/4=B,/4) (A,/4=B,/4^C/4D/4E/4F/4G/4E/4) | %236
 (F/4D/4E/4F/4G/4A/4=B/4^c/4) (d/4=B/4^c/4d/4e/4f/4g/4a/4) _b/D/T=C/B,/ | %237
 C/4D/4E/4^F/4G/4A/4B/4c/4 d/4A/4B/4c/4d/4e/4^f/4g/4 a/C/TB,/A,/ | %238
 B,/4D/4E/4^F/4G/4A/4B/4c/4 d/4G/4A/4B/4c/4d/4e/4^f/4 g/4a/4b/4a/4g/4=f/4e/4d/4 | %239
 ^c/4a/4g/4f/4e/4d/4^c/4=B/4 A/4=B/4^c/4d/4e/4f/4g/4a/4 _b/4g/4e/4^c/4A/4G/4F/4E/4 | %240
 D/A/d/e/ f/d/_B/A/ (^G/=B/d/)f/ | C/E/A/c/ e/c/A/=G/ (^F/A/c/)_e/ | %242
 B,/D/G/B/ d/B/G/=F/ (=E/G/B/)^c/ | A,/D/F/A/ d/A/F/D/ A,/E/G/^c/ | %244
 (D/b/)(b/^g/) (g/=f/)(f/d/) d/B/^G/E/ | (^C/a/)(a/^f/) (f/_e/)(e/=c/) c/A/^F/D/ | %246
 (B,/g/)(g/_e/) (e/^c/)(c/_B/) B/G/E/^C/ | (A,/^C/)(C/E/) (E/G/4F/4)(G/B/4A/4) B/(^c/4d/4e/)G/ | %248
 (F/4A/4=B/4^c/4)d/4^c/4=B/4A/4 (f/4e/4d/4^c/4)(d/4e/4f/4g/4) (a/4g/4f/4e/4)(b/4a/4g/4f/4) | %249
 (=c/4e/4^f/4^g/4)a/4^g/4^f/4e/4 (c'/4=b/4a/4^g/4)(a/4=b/4c'/4d'/4) (e'/4d'/4c'/4=b/4)(=f'/4e'/4d'/4^c'/4) | %250
 (d'/4e'/4f'/4e'/4)(d'/4g'/4f'/4d'/4) (f'/4e'/4d'/4f'/4)(e'/4d'/4f'/4e'/4) (d'/4g'/4f'/4e'/4d'/4=c'/4_b/4a/4) | %251
 (g/4a/4b/4a/4)(g/4b/4a/4g/4) (b/4a/4g/4b/4)(a/4g/4b/4a/4) (g/4f/4e/4d/4^c/4=B/4A/4G/4) | %252
 (F/4D/4)(a/4D/4)(F/4D/4)(a/4D/4) !arpeggio![DFa]4 | !arpeggio![DEg]4 !arpeggio![E^cg]2 | %254
 !arpeggio![Df]4 !arpeggio![DAd]2 | !arpeggio![Be][Af] [Ge][Fd] !arpeggio![Ed][E^c] | %256
 !arpeggio![Fd]6 | !arpeggio![^F_e]6 | !arpeggio!d6 | !arpeggio!F2 E2 G2 | !arpeggio!F6 | ^F6 | %262
 !arpeggio!G2 ^c2 d2 | !arpeggio!d2 !arpeggio!d2 ^c2 | !arpeggio!d2 A2 B2 | !arpeggio!=c2 B2 A2 | %266
 !arpeggio!B2 A2 [GA]2 | !arpeggio![FA]2 E4 | !arpeggio!F2 !arpeggio!A2 !arpeggio![A=c]2 | %269
 !arpeggio![GB]4 !arpeggio!F2 | !arpeggio!F4 !arpeggio!G2 | !arpeggio!d2 !arpeggio!^c4 | %272
 !arpeggio!A2 !arpeggio![Ad]2 =c2 | !arpeggio!B2 !arpeggio!=B2 d2 | %274
 !arpeggio!c2 !arpeggio!_e2 !arpeggio!d2 | !arpeggio!=f2 !arpeggio!=e4 | !arpeggio!f6 | e6 | %278
 !arpeggio!d6 | !arpeggio!^c2 !arpeggio!d2 !arpeggio!^c2 | %280
 !arpeggio!d2 !arpeggio!=c2 !arpeggio!d2 | !arpeggio![Gc]2 !arpeggio!G2 !arpeggio!F2 | %282
 !arpeggio!F2 !arpeggio!G2 !arpeggio!F2 | !arpeggio!E2 !arpeggio!E4 | %284
 D(f/4e/4d/4e/4 d/4=c/4d/4c/4B/4c/4B/4A/4 B/4c/4d/4e/4f/)G/ | %285
 C(e/4d/4c/4d/4 c/4B/4c/4B/4A/4B/4A/4G/4 A/4B/4c/4d/4_e/)C/ | %286
 B,(d/4c/4B/4c/4 B/4A/4B/4A/4G/4A/4G/4F/4 G/4A/4B/4c/4d/)B,/ | %287
 A,/4(A/4=B/4^c/4d/)A,/ G,/4(A/4=B/4=c/4d/)G,/ A,/4(d/4^c/4=B/4^c/)G/ | %288
 (F/E/D/^C/) (D/F/G/A/) _B/A/B/G/ | !arpeggio![GB]2 [GA]4 | !arpeggio![FA]2 !arpeggio!F4 | %291
 !arpeggio![G,Gdb]2 !arpeggio![A,Fda]2 !arpeggio![A,E^cg]2 | %292
 !arpeggio![DAdg]2 !arpeggio![DAd^f]2 =C=f | !arpeggio![=B,Gdf]2 !arpeggio![CGce]2 _B,_e | %294
 !arpeggio![A,F_e]2 !arpeggio![B,Fd]2 A,d | ^G,d ^c3 d ||[K:D] d2 F3 G | E2 (F3 G/A/) | %298
 D2 (E3 F/G/) | FE E3 A | F2 BA GF | E2 (F/G/A/G/ F)E | D2 EG/F/ ED | [Gc][Fd] E3 A | FE DE F^G | %305
 AB cd Bc | df ed cB | [FA][DB] [Ec][Fd] [Ge][Ec] | FE d3 d | e2 a3 g | %310
 [df][ce] [Bg][Af] [Gdb][FBa] | [Ec][Dd] d2 c2 | d/c/B/A/ (^G/B/d/f/) ee | %313
 C/D/C/B,/ (A,/C/E/=G/) Fe | B,/C/D/B,/ (G,/B,/D/F/) Ed | c/B/A/B/ (c/e/g/)b/ a/g/f/e/ | %316
 f/a/f/d/ A/d/A/F/ D/F/E/D/ | C/a/e/c/ A/c/A/E/ C/E/D/C/ | B,/^g/d/B/ ^G/B/G/E/ B,/D/C/B,/ | %319
 A,/B,/C/D/ E/C/A,/C/ E/=G/F/E/ | F/D/A,/D/ F/D/A/F/ d/A/f/d/ | a/e/c/e/ a/e/c'/a/ e'/c'/f'/c'/ | %322
 d'/f'/d'/b/ f/b/d/f/ B/d/c/B/ | c/e/c/A/ E/A/C/E/ A,/C/E/G/ | F/D/a/a/ a/f/d/A/ F/D/A,/D/ | %325
 E/C/a/a/ a/e/c/A/ E/C/A,/C/ | D/B,/a/a/ a/f/d/B/ d/^g/b/g/ | a/e/a/a/ a/c/e/e/ e/A/c/G/ | %328
 F/D/A/A/ A/F/D/F/ A/d/f/B,/ | C/E/A/A/ A/E/C/E/ A/c/e/A,/ | B,/D/A/A/ A/D/B,/D/ ^G/B/d/E/ | %331
 A,/E/A/A/ A/E/A/c/ e/c/A/=G/ | F/A,/A,/A,/ A,/ a/a/[df]/ [df]/[Ad]/[Ad]/[df]/ | %333
 [ce]/ A,/A,/A,/ A,/ a/a/[ce]/ [ce]/[Ac]/[Ac]/[ce]/ | %334
 [^Gd]/ A,/A,/A,/ A,/ b/b/[B^g]/ [Bg]/[de]/[de]/[dg]/ | %335
 [ca]/ A,/A,/A,/ A,/ [Aa]/[Aa]/[Aa]/ [Ba]/[B=g]/[cg]/[cg]/ | %336
 [df]/ D/D/D/ D/A/A/A/ [AB]/[GB]/[Gc]/[Gc]/ | %337
 [Fd]/D/D/D/ D/[dd']/[dd']/[dd']/ [ed']/[e=c']/[fc']/[fc']/ | %338
 [gb]/ D/D/D/ D/ [gb]/[gb]/[gb]/ [g^c']/[fd']/[fd']/[fd']/ | %339
 [fg]/[eg]/[eg]/[eg]/ [ed']/[Fdf]/[Fdf]/[Fdf]/ [Gde]/[Ace]/[Ace]/[Ace]/ | f2 f3 f | (fe) e3 e | %342
 (ed) =c3 c | (=cB) ^cA Bc | [df]2 [df]3 [df] | [de]2 [ce]3 [ce] | [=ca][df] ba gf | ed ^c3 d | %348
 [Fd]2 [FA]3 [FA] | [FA]2 [FA]3 [FA] | [GB]2 [GB]3 [GB] | [Gc][Fd] d3 c | d2 [Adf]3 [Adf] | %353
 [Ad]2 [Ad]3 [Ad] | [Gdf]2 [GAe]3 [GAe] | ed d3 c | d2 f3 f | g2 a3 a | b2 b3 b | c'd' d'2 c'2 | %360
 d'2 d'3 d' | c'2 =c'3 c' | b2 e3 e | ef =gb ag | [Ddf]2 [FAf]2 [CDAf]2 | %365
 [B,DBd]2 [B,DBd]2 [A,DBf]2 | [G,DBe]2 [G,Eca]2 [G,Ec]2 | [^G,Eb]2 [A,Ed]2 [A,Ec]2 | %368
 [Ddg]2 [Df]2 [Df]2 | [G,Df]2 [G,Ee]2 [^G,Ee]2 | [A,de]2 [A,ce]2 [^A,ce]2 | [B,D][G,E] [A,E]4 || %372
[K:F] D2 [DF]4 | [Ed]>e (B/G/A/E/) CA | A>d (A/^F/G/D/) B,G | G>e (^c/A/_B/G/) ^CA | %376
 [DF]>D F/A/d/^c/ (d/e/f/)A/ | [G,DBf]>D G/B/_e/d/ (_e/=c/F/A,/) | %378
 [B,F_e]>^c d/A/B/^F/ (G/D/_E/G/) | [A,G^c][G,=Fd] [A,=Ed]>B (^c/e/g/)A/ | %380
 (D/A/^c/g/) f/(d/^c/d/) D/(d/^c/d/) | (E/G/^c/a/) g/(d/^c/d/) E/(d/^c/d/) | %382
 (F/A/^c/b/) a/(d/^c/d/) F/(d/^c/d/) | (G/B/d/b/) e/(d/^c/d/) A/d/^c/e/ | %384
 f/d/(A/G/ F/)A/(D/=C/ =B,/)G/d/f/ | e/c/(G/F/ E/)G/(C/_B,/ A,/)F/c/_e/ | %386
 d/B/(F/_E/ D/)F/(B,/A,/ G,/)^C/=E/B/ | (A/F/D/)B/ G/E/^C/E/ A,/G/F/E/ | %388
 D/A/=B/^c/ d/f/g/_a/ b/(G/4F/4E/4F/4G/) | C/G/A/B/ c/e/f/g/ a/(F/4E/4D/4E/4F/) | %390
 B,/(d'/4c'/4b/4c'/4d'/) g/(b/4a/4g/4a/4b/) e/(g/4f/4e/4f/4g/) | %391
 ^c/(e/4d/4c/4d/4e/4c/4) G/(B/4A/4G/4A/4B/4G/4) (E/4D/4^C/4D/4E/4F/4G/4E/4) | %392
 (F/A/) z/ A/ z/ A/ z/ A/ z/ A/ z/ A/ | z/ A/ z/ A/ z/ A/ z/ A/ z/ A/ z/ A/ | %394
 F/A/ z/ A/ z/ A/ z/ A/ z/ A/ z/ A/ | (E/A/) z/ A/ z/ A/ z/ A/ z/ A/ z/ A/ | %396
 F/A/ z/ A/ z/ A/ z/ A/ z/ A/ z/ A/ | E/A/ z/ A/ z/ A/ z/ A/ z/ A/ z/ A/ | %398
 D/A/ z/ A/ z/ A/ z/ A/ z/ A/ z/ A/ | (A/A/)(A/A/) (A/A/)(A/A/) (=B/A/)(^c/A/) | %400
 (d/A/)(=c/A/) (_B/A/)(B/A/) (B/A/)(B/A/) | (B/A/)(B/A/) (A/A/)(A/A/) (A/A/)(A/A/) | %402
 (A/A/)(A/A/) (G/A/)(G/A/) (G/A/)(G/A/) | (G/A/)(E/A/) (A/A/)(G/A/) (F/A/)(E/A/) | %404
 ([DF]/A/) (3(D/F/A/) (3(F/A/d/) (3(A/d/f/) (3(B/d/g/) (3(G/d/b/) | %405
 (3(E/c/b/) (3(C/E/G/) (3(E/G/c/) (3(G/c/e/) (3(A/c/f/) (3(F/c/a/) | %406
 (3(D/B/a/) (3(B,/D/F/) (3(D/F/B/) (3(F/B/d/) (3(G/B/_e/) (3(_E/B/g/) | %407
 (3(=E/^c/b/) (3(F/d/a/) (3(G/e/g/) (3(^G/d/f/) (3(A/d/e/) (3(A/^c/e/) | %408
 (3D/(a/g/ (3f/)(f/e/ (3d/)(d/=c/ (3_B/)(B/A/ (3G/)(B/c/ (3d/e/f/) | %409
 (3C/(g/f/ (3e/)(e/d/ (3c/)(c/B/ (3A/)(A/G/ (3F/)(A/B/ (3c/d/_e/) | %410
 (3B,/(f/_e/ (3d/)(d/c/ (3B/)(B/A/ (3G/)(G/F/ (3=E/)(E/D/ (3^C/)(C/B,/ | %411
 A,/)(=B,/4^C/4D/4E/4F/4G/4 A/4=B/4^c/4d/4e/4f/4g/4f/4 e/4d/4^c/4=B/4A/4G/4F/4E/4 | D) z A3 A | %413
 !arpeggio!e2 e3 e | f2 d3 c | !arpeggio![GB]2 !arpeggio![FA]2 (G/F/E/F/) | %416
 (G/E/)(F/D/) [DFB]2 [=C^FA]2 | [B,Gd]2 [A,^Dc]2 [G,GB]2 | (^C/E/G/B/ A/G/e/G/) [D=F]2 | G,2 A,4 | %420
 D6 |] %421
V:2
 x/ | x8 | x8 | x8 | x8 | x8 | x8 | x8 | x8 | x8 | x8 | x8 | x8 | x8 | x8 | x8 | x15/2 :: x/ | x8 | %19
 x8 | x8 | x8 | x8 | x8 | x8 | x8 | x8 | x8 | x8 | x8 | x8 | x8 | x8 | x7 |:[M:3/4] x/ | x6 | x6 | %37
 x6 | x6 | x6 | x6 | x6 | x6 | x6 | x6 | x6 | x6 | x6 | x6 | x6 | x6 | x6 | x6 | x6 | x6 | x6 | %56
 x6 | x6 | x11/2 :: x/ | x6 | x6 | x6 | x6 | x6 | x6 | x6 | x6 | x6 | x6 | x6 | x6 | x6 | x6 | x6 | %75
 x6 | x6 | x6 | x6 | T^c2 x4 | x6 | x6 | x6 | x6 | [Ag]3 x3 | x6 | x6 | x6 | x6 | x11/2 :: %90
[M:3/4] x6 | x6 | F2 E2 D2 | _E x A,4 | x6 | x5 ^c | dA ^c2 d2 | d2 ^c=B ^c2 :| %98
 e3/2(f/4g/4) ^c3 c |: ^F x =F x3 | c2 c2 =B2 | x6 | ^f2 (gd) _eB | G2 x4 | x4 D x | x6 | x6 | %107
 A(c/=B/) (Bc) x2 | =B(d/^c/) (cd) x2 | x6 | x6 | x6 | x6 |1 x6 | e3/2(f/4g/4) T^c3 =c :|2 x6 || %116
 x6 | x6 | x6 | x6 |]:[M:12/8] x | x12 | x12 | x12 | x12 | x12 | x12 | x12 | x12 | x12 | x12 | %131
 x12 | x12 | x12 | x12 | x12 | x12 | x12 | x12 | x12 | x12 | x12 | x11 :: x | x12 | x12 | x12 | %147
 x12 | x12 | x12 | x12 | x12 | x12 | x12 | x12 | x12 | x12 | x12 | x12 | x12 | x12 | x12 | x12 | %163
 x11 :|[M:3/4] F4 | [GB]2 [GA]4 | [FA]2 F4 | G,2 A,2 ^C2 | D x F4 | [GB]2 [GA]4 | D2 B,4 | %171
 G,2 A,3/2 x5/2 | x6 | D z ^C z x2 | D z B, z z3/2 G,/ | A, z z2 z3/2 A,/ | G, x z4 | D x ^C x3 | %178
 D z B, z z3/2 B,/ | A,>G, A,4 | D x3 z3/2 d/ | ^c2 =c2 z3/2 c/ | =B2 _B2 z3/2 d/ | %183
 A>=B ^c>d e>^c | d3/2 z/ z2 z3/2 d/ | ^c2 =c2 z3/2 c/ | =B2 _B2 z3/2 ^G/ | A2 A2 z3/2 A,/ | x6 | %189
 x6 | x6 | x6 | x6 | x6 | x6 | x6 | x6 | x6 | x6 | x6 | x6 | x6 | x6 | x6 | x6 | x6 | x6 | x6 | %208
 x6 | x6 | x6 | x6 | x6 | x6 | x6 | x6 | x6 | x6 | x6 | x6 | f x2 f g x | e x2 e f x | d x2 d e x | %223
 Ad [A,E] a ^c x | f x d x3 | e x c x3 | d x B x3 | x6 | D/ x11/2 | C/ x11/2 | B,/ x11/2 | x6 | %232
 x6 | x6 | x6 | x6 | x6 | x6 | x6 | x6 | x6 | x6 | x6 | x6 | x6 | x6 | x6 | x6 | x6 | x6 | x6 | %251
 x6 | x6 | x6 | x6 | !arpeggio!G,4 !arpeggio!A,2 | !arpeggio!D2 A,2 B,2 | !arpeggio!C2 B,2 A,2 | %258
 !arpeggio![B,G]2 [A,=F]2 [G,E]2 | !arpeggio!A,6 | !arpeggio!D6 | D6 | !arpeggio!D2 E2 =F2 | %263
 !arpeggio!G2 !arpeggio!A4 | !arpeggio!D6 | !arpeggio!D6 | !arpeggio!D4 ^C2 | !arpeggio!D2 A,4 | %268
 !arpeggio!D2 !arpeggio!D2 !arpeggio!D2 | !arpeggio!G,4 !arpeggio!A,2 | %270
 !arpeggio!B,4 !arpeggio!B,2 | !arpeggio!A,2 !arpeggio!A,4 | !arpeggio!D2 !arpeggio!D4 | %273
 !arpeggio!D2 !arpeggio!D2 E2 | !arpeggio!F2 !arpeggio!^F2 !arpeggio!G2 | %275
 !arpeggio!^G2 !arpeggio!A4 | !arpeggio!D2 _B2 A2 | ^G2 A2 =G2 | !arpeggio!^F2 G2 =F2 | %279
 !arpeggio!E2 !arpeggio!F2 !arpeggio!E2 | !arpeggio!D2 !arpeggio!A,2 !arpeggio!=B,2 | %281
 !arpeggio!C2 !arpeggio!G,2 !arpeggio!A,2 | !arpeggio!B,2 !arpeggio!B,2 !arpeggio!A,2 | %283
 !arpeggio!^G,2 !arpeggio!A,4 | x6 | x6 | x6 | x6 | x6 | !arpeggio!D2 ^C4 | %290
 !arpeggio!D2 !arpeggio!B,4 | x6 | x6 | x6 | x6 | x2 [A,E]4 ||[K:D] D2 D4 | C2 [A,C]4 | B,2 G,4 | %299
 A,2 C4 | D2 D3 D | CB, A,3 A, | B,A, G,3 G, | A,2 A,4 | D2 D3 D | [CE]2 [A,E]3 [A,=G] | %306
 [B,F]2 [G,GB]3 [G,G] | A,2 A,3 A, | D x DE FG | AB cA Bc | x6 | gf [Ae]4 | D z z2 z [D^GB] | %313
 [Ace] z z2 z [^A,Fc] | [Ff] z z2 z [^G,E] | [A,E]/ x11/2 | x6 | x6 | x6 | x6 | x6 | x6 | x6 | x6 | %324
 x6 | x6 | x6 | x6 | z A/A/ A/ z/ z z2 | x6 | z A/A/ A/ z/ z z2 | z A/A/ A/ x7/2 | x6 | x6 | x6 | %335
 x6 | z/ D/D/D/ D/A/A/A/ A/G/G/G/ | z/ D/D/D/ D/d/d/d/ e/e/f/f/ | z/ D/D/D/ D/ x7/2 | x6 | %340
 [Dd]2 d3 d | d2 dc B^A | B2 B=A GF | G2 z [Gb] [Fa][Eg] | DF BA GF | GE AG FE | FD [G,Gd]=c BA | %347
 GF [A,E]4 | A,2 D3 D | =C2 C4 | B,2 E4 | A,2 ED E2 | D2 D3 D | =C2 C3 C | B,2 ^C3 C | %355
 [FA]2 EF G2 | FE [Dd]3 [Dd] | [Ed]2 [Fd]3 [Fd] | [Gd]2 [^Gd]3 [Gd] | ef e4 | D2 D3 D | A2 A3 A | %362
 G2 G3 G | A2 [A,E]3 [A,E] | x6 | x6 | x6 | d2 ef =g2 | D2 AB =c2 | B2 B^c d2 | E2 EF =G2 | %371
 d[db] c3 c ||[K:F] d2 B3 B | C3/2 z/ z2 z C | C3/2 z/ z2 z B, | A,3/2 z/ z2 z ^C | x6 | x6 | x6 | %379
 x6 | x6 | x6 | x6 | x6 | x6 | x6 | x6 | x6 | x6 | x6 | x6 | x6 | %392
 D/ z/ A/ z/ B/ z/ A/ z/ G/ z/ F/ z/ | C/ z/ B/ z/ A/ z/ G/ z/ F/ z/ E/ z/ | %394
 B,/ z/ A/ z/ G/ z/ F/ z/ E/ z/ D/ z/ | A,/ z/ F/ z/ G/ z/ B/ z/ A/ z/ G/ z/ | %396
 D/ z/ A/ z/ ^G/ z/ =G/ z/ ^F/ z/ =F/ z/ | C/ z/ G/ z/ ^F/ z/ =F/ z/ E/ z/ _E/ z/ | %398
 B,/ z/ E/ z/ F/ z/ ^F/ z/ G/ z/ ^G/ z/ | A,/ z/ =B,/ z/ C/ z/ ^C/ z/ D/ z/ E/ z/ | %400
 F/ z/ D/ z/ G/ z/ F/ z/ E/ z/ D/ z/ | E/ z/ C/ z/ F/ z/ E/ z/ D/ z/ C/ z/ | %402
 D/ z/ =B,/ z/ E/ z/ D/ z/ ^C/ z/ =B,/ z/ | ^C/ z/ C/ z/ C/ z/ A,/ z/ =B,/ z/ ^C/ z/ | x6 | x6 | %406
 x6 | x6 | x6 | x6 | x6 | x6 | z2 !arpeggio![DF]4 | !arpeggio![DGB]2 !arpeggio![^CGA]4 | %414
 !arpeggio![DFA]2 !arpeggio![B,F]4 | !arpeggio!G,2 !arpeggio!A,2 ^C2 | C z z4 | x6 | x6 | %419
 z E E3 D | D6 |] %421
V:3
 x/ | x8 | x8 | x8 | x8 | x8 | x8 | x8 | x8 | x8 | x8 | x8 | x8 | x8 | x8 | x8 | x15/2 :: x/ | x8 | %19
 x8 | x8 | x8 | x8 | x8 | x8 | x8 | x8 | x8 | x8 | x8 | x8 | x8 | x8 | x7 |:[M:3/4] x/ | x6 | x6 | %37
 x6 | x6 | x6 | x6 | x6 | x6 | x6 | x6 | x6 | x6 | x6 | x6 | x6 | x6 | x6 | x6 | x6 | x6 | x6 | %56
 x6 | x6 | x11/2 :: x/ | x6 | x6 | x6 | x6 | x6 | x6 | x6 | x6 | x6 | x6 | x6 | x6 | x6 | x6 | x6 | %75
 x6 | x6 | x6 | x6 | x6 | x6 | x6 | x6 | x6 | x6 | x6 | x6 | x6 | x6 | x11/2 ::[M:3/4] x6 | x6 | %92
 AB BA Ad | x6 | x6 | x6 | x2 g2 (g/f/e/f/) | e6 :| c2 x4 |: x6 | g2 fe fg | x6 | x6 | x6 | x6 | %105
 x6 | x6 | x6 | x6 | x6 | x6 | x6 | x6 |1 x6 | x6 :|2 x6 || x6 | x6 | x6 | x6 |]:[M:12/8] x | x12 | %122
 x12 | x12 | x12 | x12 | x12 | x12 | x12 | x12 | x12 | x12 | x12 | x12 | x12 | x12 | x12 | x12 | %138
 x12 | x12 | x12 | x12 | x11 :: x | x12 | x12 | x12 | x12 | x12 | x12 | x12 | x12 | x12 | x12 | %154
 x12 | x12 | x12 | x12 | x12 | x12 | x12 | x12 | x12 | x11 :|[M:3/4] D4 | D2 ^C4 | D2 B,4 | x6 | %168
 x2 D4 | D2 ^C4 | [FA]2 F4 | E2 E3/2 x5/2 | x6 | e z e z x2 | f z d>f e>d | d z ^c z z3/2 a/ | %176
 [df] x5 | [Be] x [Ae] x3 | [Ae] z d>f e>^c | F>G E4 | D x z4 | x6 | x6 | x6 | x6 | x6 | x6 | %187
 d2 e2 x2 | D x5 | D x5 | D x5 | x G, A,/ x7/2 | D/ x11/2 | x6 | x6 | x6 | x6 | x6 | x6 | x6 | x6 | %201
 x6 | x6 | x6 | x6 | x6 | x6 | x6 | x6 | x6 | x6 | x6 | x6 | x6 | x6 | x6 | x6 | x6 | x6 | x6 | %220
 x6 | x6 | x6 | x6 | x6 | x6 | x6 | x6 | x6 | x6 | x6 | x6 | x6 | x6 | x6 | x6 | x6 | x6 | x6 | %239
 x6 | x6 | x6 | x6 | x6 | x6 | x6 | x6 | x6 | x6 | x6 | x6 | x6 | x6 | x6 | x6 | x6 | x6 | x6 | %258
 x6 | !arpeggio!d4 ^c2 | !arpeggio!d2 A2 B2 | c2 B2 A2 | !arpeggio!B2 b2 a2 | %263
 !arpeggio!gf !arpeggio!e4 | !arpeggio!f6 | !arpeggio!^f6 | !arpeggio!g2 =f2 e2 | %267
 !arpeggio!f2 ^c4 | !arpeggio!d2 !arpeggio!f2 !arpeggio!f2 | !arpeggio!f2 e2 !arpeggio!_e2 | %270
 !arpeggio!_e2 f2 !arpeggio!=e2 | !arpeggio![Ae]2 !arpeggio!a2 g2 | !arpeggio!f2 !arpeggio!^f4 | %273
 !arpeggio!g2 !arpeggio!^g4 | !arpeggio!a2 !arpeggio!c'2 !arpeggio!=b2 | x6 | !arpeggio!d'6 | %277
 d'2 ^c'4 | !arpeggio!c'2 =b4 | !arpeggio!_b2 !arpeggio!a2 !arpeggio!g2 | %280
 !arpeggio!^f2 !arpeggio!=f2 !arpeggio!f2 | !arpeggio!e2 !arpeggio!_e2 !arpeggio!e2 | %282
 !arpeggio!d2 !arpeggio!d2 !arpeggio!d2 | !arpeggio!d2 !arpeggio!d2 ^c2 | x6 | x6 | x6 | x6 | x6 | %289
 !arpeggio!e2 e3 e | !arpeggio!f2 !arpeggio!d3 d | x6 | x6 | x6 | x6 | x6 ||[K:D] x6 | x6 | x6 | %299
 x6 | x2 F2 x2 | x6 | x6 | x6 | x6 | x6 | x6 | x6 | d2 f3 f | c x5 | x6 | x6 | x6 | x6 | x6 | x6 | %316
 x6 | x6 | x6 | x6 | x6 | x6 | x6 | x6 | x6 | x6 | x6 | x6 | x6 | x6 | x6 | x6 | x6 | x6 | x6 | %335
 x6 | x6 | x6 | x6 | x6 | x6 | x6 | x6 | x6 | x6 | x6 | x6 | x6 | x6 | x6 | x6 | x6 | x6 | x6 | %354
 x6 | D2 A,2 x2 | x6 | x6 | x6 | A2 A4 | f2 f3 f | e2 f3 f | gd d3 d | d2 c3 c | x6 | x6 | x6 | %367
 x6 | x6 | x6 | x6 | x6 ||[K:F] x6 | x6 | x6 | x6 | x6 | x6 | x6 | x6 | x6 | x6 | x6 | x6 | x6 | %385
 x6 | x6 | x6 | x6 | x6 | x6 | x6 | x6 | x6 | x6 | x6 | x6 | x6 | x6 | x6 | x6 | x6 | x6 | x6 | %404
 x6 | x6 | x6 | x6 | x6 | x6 | x6 | x6 | x6 | x6 | x6 | x6 | x6 | x6 | x6 | x6 | x6 |] %421

